X: 9814
T: Denis Murphy's
R: slide
M: 12/8
K: Amajor
|:c2c cBc e2c A2B|cBc e2c B3 A2B|
c2c cBc e2c A2B|c2f f2e f3 f2e:|
|:c2a a2g a2f ecB|c2a a2g a3 a2b|
c'ba bag a2f gfe|c2f f2e f3 f2e:|

